svgs/regular/films.svg

<svg xmlns="http://www.w3.org/2000/svg" viewBox="0 0 576 512"><!--! Font Awesome Pro 6.6.0 by @fontawesome - https://fontawesome.com License - https://fontawesome.com/license (Commercial License) Copyright 2024 Fonticons, Inc. --><path d="M256 264l0-32 160 0 0 32 0 72-160 0 0-72zm0-80l0-32 0-72 160 0 0 72 0 32-160 0zM440 32l-24 0L256 32l-24 0-24 0-48 0c-35.3 0-64 28.7-64 64l0 32 0 24 0 24 0 64 0 24 0 24 0 32c0 35.3 28.7 64 64 64l48 0 24 0 24 0 160 0 24 0 24 0 48 0c35.3 0 64-28.7 64-64l0-32 0-24 0-24 0-64 0-24 0-24 0-32c0-35.3-28.7-64-64-64l-48 0-24 0zM160 80l48 0 0 48-64 0 0-32c0-8.8 7.2-16 16-16zm-16 96l64 0 0 32 0 32-64 0 0-64zm0 112l64 0 0 48-48 0c-8.8 0-16-7.2-16-16l0-32zm368 48l-48 0 0-48 64 0 0 32c0 8.8-7.2 16-16 16zm16-96l-64 0 0-32 0-32 64 0 0 64zm0-112l-64 0 0-48 48 0c8.8 0 16 7.2 16 16l0 32zM48 120c0-13.3-10.7-24-24-24S0 106.7 0 120L0 344c0 75.1 60.9 136 136 136l320 0c13.3 0 24-10.7 24-24s-10.7-24-24-24l-320 0c-48.6 0-88-39.4-88-88l0-224z"/></svg>

<svg xmlns="http://www.w3.org/2000/svg" viewBox="0 0 576 512"><!--! Font Awesome Pro 6.4.0 by @fontawesome - https://fontawesome.com License - https://fontawesome.com/license (Commercial License) Copyright 2023 Fonticons, Inc. --><path d="M256 264V232H416v32 72H256V264zm0-80V152 80H416v72 32H256zM440 32H416 256 232 208 160c-35.3 0-64 28.7-64 64v32 24 24 64 24 24 32c0 35.3 28.7 64 64 64h48 24 24H416h24 24 48c35.3 0 64-28.7 64-64V288 264 240 176 152 128 96c0-35.3-28.7-64-64-64H464 440zM160 80h48v48H144V96c0-8.8 7.2-16 16-16zm-16 96h64v32 32H144V176zm0 112h64v48H160c-8.8 0-16-7.2-16-16V288zm368 48H464V288h64v32c0 8.8-7.2 16-16 16zm16-96H464V208 176h64v64zm0-112H464V80h48c8.8 0 16 7.2 16 16v32zM48 120c0-13.3-10.7-24-24-24S0 106.7 0 120V344c0 75.1 60.9 136 136 136H456c13.3 0 24-10.7 24-24s-10.7-24-24-24H136c-48.6 0-88-39.4-88-88V120z"/></svg>
